!!!OTL: Verschlafener Jaeger
!!!OTL-incipit:Es wollt' ein Jaeger jagen
!!!ARE: Europa, Mitteleuropa, Deutschland (BRD), Baden, Ortenau, Meissenheim
!!!YOR: 7, S. 219
!!    1897 aufgezeichnet (ca.)
!!!SCT: Q0152Q
!!!TXL: @@DE
!!!YEM: Copyright 1995, estate of Helmut Schaffrath.
**kern	**text
*ICvox	*
*M6/8	*
*k[b-e-]	*
*g:	*
{8d	Es
=1	=1
4g	wollt'
8a	ein
4b-/	Jä-
8g	-ger
=2	=2
[4.dd	ja-
8ddL]	.
8ccJ}	-gen
{8b-	ein
=3	=3
4a	Hirsch-
8g	-lein
8f#L	o-
8f#	-der
8gJ	ein
=4	=4
[4.a	Reh,
8a]	.
8r}	.
{8g	drei
=5	=5
4dd	Stünd-
8dd	-lein
4b-	vor
8g	dem
=6	=6
4.gg	Ta-
4dd}	-gen
{8cc	ein
=7	=7
(8.b-L	Hirsch-
16a)	.
8gJ	-lein
8.aL	o-
16g	-der
8f#J	ein
=8	=8
[4.g	Reh
8g]	.
8r}	.
{8g	drei
=9	=9
4dd	Stünd-
8dd	-lein
4b-	vor
8g	dem
=10	=10
4.gg	Ta-
4dd}	-gen
{8cc	ein
=11	=11
(8.b-L	Hirsch-
16a)	.
8gJ	-lein
8.aL	o-
16g	-der
8f#J	ein
=12	=12
[4.g	Reh
8g]	.
8r}	.
==	==
!!!AGN: Ballade, Verfuehrung, Versagen, Spott
!! Zweistimmig notiert, Oberstimme kodiert. Pausen am Ende der 4. und 6.
!!    Zeile eingefuegt.
!!!ONB: ESAC (Essen Associative Code) Database: BALLADE
!!!AMT: compound duple
!!!AIN: vox
!!!EED: Helmut Schaffrath
!!!EEV: 1.0
!!!source: Deutsche Volkslieder mit ihren Melodien Balladen. Herausgegeben vom Deutschen Volksliedarchiv. Siebenterer Band. Freiburg/Breisgau 1982.
!!!page: 219
!!!ENC: Anna Maria Matuszewska
!!!EEV: 2025/03/07
*-	*-
